modules/hawcons-stroke/icons/icon-11-baseball-set.svg

<?xml version="1.0" encoding="UTF-8" standalone="no"?>
<svg width="32px" height="32px" viewBox="0 0 32 32" version="1.1" xmlns="http://www.w3.org/2000/svg" xmlns:xlink="http://www.w3.org/1999/xlink" xmlns:sketch="http://www.bohemiancoding.com/sketch/ns">
    <!-- Generator: Sketch 3.0.3 (7891) - http://www.bohemiancoding.com/sketch -->
    <title>icon 11 baseball set</title>
    <desc>Created with Sketch.</desc>
    <defs></defs>
    <g id="Page-1" stroke="none" stroke-width="1" fill="none" fill-rule="evenodd" sketch:type="MSPage">
        <g id="icon-11-baseball-set" sketch:type="MSArtboardGroup" fill="#929292">
            <path d="M19.8866845,25.4886967 C20.1967519,26.9130252 21.3739939,28.0135934 22.8376032,28.2095939 C23.0799212,26.1488371 24.7146797,24.5140787 26.7754365,24.2717607 C26.5668175,22.7139227 25.3334068,21.4805119 23.7755684,21.2718926 C23.5332504,23.3326494 21.898492,24.9674078 19.8377351,25.2097259 C19.8278644,25.1360176 19.8511068,25.3252667 19.8866845,25.4886967 L19.8866845,25.4886967 Z M22.764926,21.282403 C21.2656708,21.5153275 20.0811683,22.6998308 19.8482451,24.1990865 C21.3474998,23.9661592 22.5320018,22.7816573 22.764926,21.282403 L22.764926,21.282403 L22.764926,21.282403 Z M26.764926,25.282403 C26.5320018,26.7816573 25.3474997,27.9661593 23.8482454,28.1990835 C24.0811699,26.6998292 25.2656718,25.5153273 26.764926,25.282403 L26.764926,25.282403 L26.764926,25.282403 Z M13.8056944,16.5682789 L6.52933749,24.8482712 L6.52933749,24.8482712 L7.41892344,25.7378572 L15.6989157,18.4615003 L13.8056944,16.5682789 L13.8056944,16.5682789 L13.8056944,16.5682789 Z M14.4671814,15.8155524 L24.1543391,4.79223488 C25.0184355,3.80895283 26.4575656,3.76430604 27.3766997,4.68344016 L27.5837545,4.89049498 C28.4981983,5.80493871 28.4541796,7.25232906 27.4749598,8.11285555 L16.4516423,17.8000133 L14.4671814,15.8155524 L14.4671814,15.8155524 L14.4671814,15.8155524 Z M5.8678505,25.6009978 L5.20636351,26.3537244 L5.20636351,26.3537244 L4.84954964,25.9969105 C4.65608821,25.8034491 4.33525491,25.8106194 4.14570334,26.000171 C3.95044119,26.1954331 3.94471008,26.5062845 4.14244286,26.7040173 L5.56317738,28.1247518 C5.75663881,28.3182133 6.07747211,28.3110429 6.26702368,28.1214913 C6.46228583,27.9262292 6.46801695,27.6153778 6.27028416,27.417645 L5.91347029,27.0608312 L6.66619687,26.3993442 L5.8678505,25.6009978 L5.8678505,25.6009978 L5.8678505,25.6009978 Z M5.09211445,24.9747122 L23.5419661,4.06488036 C24.74585,2.70047856 26.7491263,2.64165316 28.0279187,3.92044561 L28.3467491,4.23927596 C29.6245784,5.51710525 29.5608759,7.52649783 28.2023143,8.72522861 L7.29161292,27.1758475 C7.52571687,27.7227083 7.42073369,28.3819949 6.97413046,28.8285981 C6.38426003,29.4184686 5.43854436,29.4143324 4.85269354,28.8284815 L3.43871314,27.4145011 C2.85475422,26.8305422 2.85281012,25.8788507 3.43859656,25.2930642 C3.88859442,24.8430664 4.5456869,24.7387681 5.09211445,24.9747122 L5.09211445,24.9747122 L5.09211445,24.9747122 Z M23.3065858,20.2407433 C20.8213044,20.2407433 18.8065858,22.2554619 18.8065858,24.7407433 C18.8065858,27.2260246 20.8213044,29.2407433 23.3065858,29.2407433 C25.7918672,29.2407433 27.8065858,27.2260246 27.8065858,24.7407433 C27.8065858,22.2554619 25.7918672,20.2407433 23.3065858,20.2407433 L23.3065858,20.2407433 Z" id="baseball-set" sketch:type="MSShapeGroup"></path>
        </g>
    </g>
</svg>

<svg width="32" height="32" xmlns="http://www.w3.org/2000/svg"><path d="M19.887 25.489a3.503 3.503 0 0 0 2.95 2.72 4.502 4.502 0 0 1 3.938-3.937 3.502 3.502 0 0 0-3-3 4.502 4.502 0 0 1-3.937 3.938c-.01-.074.013.115.049.279zm2.878-4.207a3.503 3.503 0 0 0-2.917 2.917 3.503 3.503 0 0 0 2.917-2.917zm4 4a3.503 3.503 0 0 1-2.917 2.917 3.503 3.503 0 0 1 2.917-2.917zm-12.96-8.714l-7.276 8.28.89.89 8.28-7.276-1.893-1.894zm.662-.752l9.687-11.024c.864-.983 2.304-1.028 3.223-.109l.207.207c.914.915.87 2.362-.109 3.223L16.452 17.8l-1.985-1.984zm-8.6 9.785l-.66.753-.357-.357a.503.503 0 0 0-.704.003.494.494 0 0 0-.004.704l1.421 1.42a.503.503 0 0 0 .704-.003.494.494 0 0 0 .003-.703l-.357-.357.753-.662-.798-.798zm-.775-.626l18.45-20.91c1.204-1.365 3.207-1.423 4.486-.145l.319.32c1.278 1.277 1.214 3.286-.145 4.485l-20.91 18.45c.234.548.129 1.207-.318 1.654-.59.59-1.535.585-2.121 0l-1.414-1.414a1.502 1.502 0 0 1 1.653-2.44zm18.215-4.734a4.5 4.5 0 1 0 0 9 4.5 4.5 0 0 0 0-9z" fill="#929292" fill-rule="evenodd"/></svg>
